src/main/resources/icons/AllIcons/general/expandComponentHover.svg

<!-- Copyright 2000-2021 JetBrains s.r.o. Use of this source code is governed by the Apache 2.0 license that can be found in the LICENSE file. -->
<svg width="16" height="16" viewBox="0 0 16 16" fill="none" xmlns="http://www.w3.org/2000/svg">
<g id="idea/community/platform/icons/src/general/expandComponentHover">
<g id="Icons/expandHover">
<g id="Icons/expandHover_2">
<path id="Combined Shape" fill-rule="evenodd" clip-rule="evenodd" d="M7.37843 9.37843L6.67132 8.67133L4.17132 11.1713L2 9.00001V14H7L4.87843 11.8784L7.37843 9.37843Z" fill="#7F8B91" fill-opacity="0.9"/>
<path id="Combined Shape_2" fill-rule="evenodd" clip-rule="evenodd" d="M8.67157 6.67159L9.37868 7.37869L11.8787 4.87869L14 7.00001V2.00001H9L11.1716 4.17159L8.67157 6.67159Z" fill="#7F8B91" fill-opacity="0.9"/>
</g>
</g>
</g>
</svg>

<svg width="16" height="16" viewBox="0 0 16 16" fill="none" xmlns="http://www.w3.org/2000/svg"><rect id="frame" width="16" height="16" fill="none"/><g fill-rule="evenodd" clip-rule="evenodd" fill="#7F8B91" fill-opacity=".9"><path d="M7.378 9.378l-.707-.707-2.5 2.5L2 9v5h5l-2.122-2.122 2.5-2.5z"/><path d="M8.672 6.672l.707.707 2.5-2.5L14 7V2H9l2.172 2.172-2.5 2.5z"/></g></svg>
